static/codicons.svg

<svg fill="none" height="16" viewBox="0 0 16 16" width="16" xmlns="http://www.w3.org/2000/svg"><path d="m13.51 4-4.99999-3h-1l-5 3-.48999.85999v6.00001l.48999.85 5 3h1l4.99999-3 .49-.85v-6.00001zm-5.99999 9.5601-4.5-2.7001v-5.16005l4.5 2.45007zm-4.23999-8.86015 4.73999-2.83996 4.73999 2.83996-4.73999 2.59009zm9.73998 6.16005-4.49999 2.7001v-5.41008l4.49999-2.45007z" fill="#b55ef9"/></svg>

<svg width="16" height="16" viewBox="0 0 16 16" fill="none" xmlns="http://www.w3.org/2000/svg">
<path d="M13.51 4L8.51001 1H7.51001L2.51001 4L2.02002 4.85999V10.86L2.51001 11.71L7.51001 14.71H8.51001L13.51 11.71L14 10.86V4.85999L13.51 4ZM7.51001 13.5601L3.01001 10.86V5.69995L7.51001 8.15002V13.5601ZM3.27002 4.69995L8.01001 1.85999L12.75 4.69995L8.01001 7.29004L3.27002 4.69995ZM13.01 10.86L8.51001 13.5601V8.15002L13.01 5.69995V10.86Z" fill="#B55EF9"/>
</svg>
